X:1
T:Title
%%score { ( 1 3 ) | ( 2 4 ) }
L:1/8
Q:1/4=87
M:6/8
K:C
V:1 treble nm="Grand Piano"
V:3 treble 
V:2 bass 
V:4 bass 
V:1
 [G,CE][G,DF][A,_E^F] [C=EG][G,CE][CEG] | [CFA][CFA][CFA] [CFA]3 | [CEG][G,CE][Ec] [FB][FA][FB] | %3
w: W.~H.~Doane * * * * *|||
 c3 z3 | [G,CE][G,DF][A,_E^F] [C=EG][G,CE][CEG] | [CFA][CFA][CFA] [CFA]3 | %6
w: |||
 [CEG][G,CE][Ec] [FB][FA][FB] |[M:5/8] [Ec]-[Ec]- [Ec]3 |[M:3/16] [Ec]3/2 |[M:3/4] d4 z2 | %10
w: ||||
 [Ge][Ge] e e2 [Gd] | [Ac][^GB] [Ac][Bd] [Ac][FA] | [EG][Gc] [Ge] [Gd]2 [FG] | %13
w: |||
 [EG][CE] [DF][EG] [Ec][Ee] |[M:7/8] [Ee][Ee]d c3 A |[M:3/4] G[Gc] [Ge]d AB | [Ec]6 |] %17
w: ||||
V:2
 C,C,C, C,C,C, | F,F,F, F,3 | C,C,[C,G,] [G,,G,][G,,G,][G,,G,] | z3 .G3 | C,C,C, C,C,C, | %5
 F,F,F, F,3 | C,C,[C,G,] [G,,G,][G,,G,][G,,G,] |[M:5/8] [C,G,]-[C,G,]- [C,G,]3 |[M:3/16] [C,C]3/2 | %9
[M:3/4] [G,B,]G, G,[G,B,][K:treble] [G,CE][G,B,G] | %10
 [C,C][E,C][K:treble] [G,CG] [CG]2[K:bass] [E,C] | [F,C][F,C] [F,C][F,C] [F,C][F,C] | %12
 [G,C][E,C] [C,C] [G,B,]2 [G,B,] | [C,C][C,G,] [C,G,][C,C] [C,G,][C,G,] | %14
[M:7/8] [B,,^G,][E,G,][G,B,E] [A,CE]3 [F,CF] | %15
[M:3/4] [G,CE][E,C] [C,C][K:treble][G,B,F] [G,DF][G,DF] | [C,C]6 |] %17
V:3
 x6 | x6 | x6 | E6 | x6 | x6 | x6 |[M:5/8] x5 |[M:3/16] x3/2 |[M:3/4] G-[B,G-] [B,G]F cd | x6 | %11
 x6 | x6 | x6 |[M:7/8] x7 |[M:3/4] x6 | x6 |] %17
V:4
 x6 | x6 | x6 | [C,G,]6 | x6 | x6 | x6 |[M:5/8] x5 |[M:3/16] x3/2 |[M:3/4] x4[K:treble] x2 | %10
 x2[K:treble] x3[K:bass] x | x6 | x6 | x6 |[M:7/8] x7 |[M:3/4] x3[K:treble] x3 | x6 |] %17

